**harm	**harte	**silbe	**rhyme	**timestamp	**phrase	**leadinstrument	**kern
*M4/4	*M4/4	*	*	*	*	*	*
*	*	*	*	*	*	*	*
*	*	*	*	*	*	*	*
*G:	*G:	*	*	*	*	*	*G:
*	*	*	*	*	*	*	*
*	*	*	*	*	*	*	*
1r;	N	.	.	0	.	r	1r;
=1	=1	=1	=1	=1	=1	=1	=1
*>Letter>A	*>Letter>A	*>Letter>A	*>Letter>A	*>Letter>A	*>Letter>A	*>Letter>A	*>Letter>A
*>Label>Intro	*>Label>Intro	*>Label>Intro	*>Label>Intro	*>Label>Intro	*>Label>Intro	*>Label>Intro	*>Label>Intro
1Im7	G:5	.	.	0.464	newline	guitar	1G 1b 1dd 1ff#
=2	=2	=2	=2	=2	=2	=2	=2
1Im7	G:5	.	.	1.951	.	guitar	1G 1b 1dd 1ff#
=3	=3	=3	=3	=3	=3	=3	=3
1Im7	G:5	.	.	3.437	.	guitar	1G 1b 1dd 1ff#
=4	=4	=4	=4	=4	=4	=4	=4
1Im7	G:5	.	.	4.923	.	guitar	1G 1b 1dd 1ff#
.	.	.	.	.	.	.	.
.	.	Some-	.	.	.	.	.
.	.	_	.	.	.	.	.
.	.	-times	.	.	.	.	.
=5	=5	=5	=5	=5	=5	=5	=5
*>Letter>B	*>Letter>B	*>Letter>B	*>Letter>B	*>Letter>B	*>Letter>B	*>Letter>B	*>Letter>B
*>Label>Verse	*>Label>Verse	*>Label>Verse	*>Label>Verse	*>Label>Verse	*>Label>Verse	*>Label>Verse	*>Label>Verse
1Im7	G:7	_	.	6.41	newline	voice	1G 1b 1dd 1ff#
.	.	I	.	.	.	.	.
.	.	will	.	.	.	.	.
.	.	then	.	.	.	.	.
.	.	a-	.	.	.	.	.
=6	=6	=6	=6	=6	=6	=6	=6
1Im7	G:7	-gain	.	7.844	.	voice	1G 1b 1dd 1ff#
.	.	I	.	.	.	.	.
.	.	think	.	.	.	.	.
.	.	I	.	.	.	.	.
.	.	won't	A	.	.	.	.
=7	=7	=7	=7	=7	=7	=7	=7
1Im7	G:7	_	.	9.278	.	voice	1G 1b 1dd 1ff#
.	.	.	.	.	.	.	.
.	.	.	.	.	.	.	.
=8	=8	=8	=8	=8	=8	=8	=8
1Im7	G:7	.	.	10.712	.	voice	1G 1b 1dd 1ff#
.	.	.	.	.	.	.	.
.	.	Some-	.	.	.	.	.
.	.	_	.	.	.	.	.
.	.	-times	.	.	.	.	.
=9	=9	=9	=9	=9	=9	=9	=9
1IVm7	C:7	_	.	12.146	newline	voice	1C 1e 1g 1b
.	.	I	.	.	.	.	.
.	.	will	.	.	.	.	.
.	.	then	.	.	.	.	.
.	.	a-	.	.	.	.	.
=10	=10	=10	=10	=10	=10	=10	=10
1IVm7	C:7	-gain	.	13.533	.	voice	1C 1e 1g 1b
.	.	I	.	.	.	.	.
.	.	think	.	.	.	.	.
.	.	I	.	.	.	.	.
.	.	won't	A	.	.	.	.
=11	=11	=11	=11	=11	=11	=11	=11
1Im7	G:7	_	.	14.92	.	voice	1G 1b 1dd 1ff#
.	.	.	.	.	.	.	.
.	.	.	.	.	.	.	.
=12	=12	=12	=12	=12	=12	=12	=12
1Im7	G:7	.	.	16.307	.	voice	1G 1b 1dd 1ff#
.	.	.	.	.	.	.	.
.	.	Some-	.	.	.	.	.
.	.	-times	.	.	.	.	.
=13	=13	=13	=13	=13	=13	=13	=13
1V7	D:7	_	.	17.694	newline	voice	1D 1f# 1a 1cc
.	.	I	.	.	.	.	.
.	.	do	.	.	.	.	.
.	.	_	.	.	.	.	.
.	.	then	.	.	.	.	.
.	.	a-	.	.	.	.	.
.	.	-gain	.	.	.	.	.
=14	=14	=14	=14	=14	=14	=14	=14
1V7	D:7	_	.	19.082	.	voice	1D 1f# 1a 1cc
.	.	I	.	.	.	.	.
.	.	_	.	.	.	.	.
.	.	think	.	.	.	.	.
.	.	I	.	.	.	.	.
.	.	don't	A	.	.	.	.
=15	=15	=15	=15	=15	=15	=15	=15
1Im7	G:7	_	.	20.469	.	voice	1G 1b 1dd 1ff#
.	.	.	.	.	.	.	.
.	.	.	.	.	.	.	.
=16	=16	=16	=16	=16	=16	=16	=16
2Im7	G:7	.	.	21.856	.	voice	2G 2b 2dd 2ff#
2V7	D:7	.	.	22.55	.	voice	2D 2f# 2a 2cc
.	.	Well	.	.	.	.	.
.	.	I	.	.	.	.	.
=17	=17	=17	=17	=17	=17	=17	=17
*>Letter>B	*>Letter>B	*>Letter>B	*>Letter>B	*>Letter>B	*>Letter>B	*>Letter>B	*>Letter>B
*>Label>Verse	*>Label>Verse	*>Label>Verse	*>Label>Verse	*>Label>Verse	*>Label>Verse	*>Label>Verse	*>Label>Verse
1Im7	G:7	looked	.	23.244	newline	voice	1G 1b 1dd 1ff#
.	.	at	.	.	.	.	.
.	.	my	.	.	.	.	.
.	.	watch,	.	.	.	.	.
.	.	it	.	.	.	.	.
.	.	was	.	.	.	.	.
.	.	nine	.	.	.	.	.
=18	=18	=18	=18	=18	=18	=18	=18
1Im7	G:7	_	.	24.654	.	voice	1G 1b 1dd 1ff#
.	.	twen-	.	.	.	.	.
.	.	-ty	.	.	.	.	.
.	.	one	B	.	.	.	.
.	.	we's	.	.	.	.	.
.	.	at	.	.	.	.	.
.	.	a	.	.	.	.	.
=19	=19	=19	=19	=19	=19	=19	=19
1Im7	G:7	rock	.	26.065	.	voice	1G 1b 1dd 1ff#
.	.	'n'	.	.	.	.	.
.	.	roll	.	.	.	.	.
.	.	dance	.	.	.	.	.
.	.	ha-	.	.	.	.	.
.	.	-ving	.	.	.	.	.
=20	=20	=20	=20	=20	=20	=20	=20
1Im7	G:7	no-	.	27.475	.	voice	1G 1b 1dd 1ff#
.	.	-thin'	.	.	.	.	.
.	.	but	.	.	.	.	.
.	.	fun	B	.	.	.	.
.	.	_	.	.	.	.	.
.	.	And	.	.	.	.	.
.	.	we	.	.	.	.	.
.	.	rolled,	.	.	.	.	.
=21	=21	=21	=21	=21	=21	=21	=21
1IVm7	C:7	_	.	28.886	newline	voice	1C 1e 1g 1b
.	.	.	.	.	.	.	.
.	.	.	.	.	.	.	.
=22	=22	=22	=22	=22	=22	=22	=22
1IVm7	C:7	.	.	30.287	.	voice	1C 1e 1g 1b
.	.	.	.	.	.	.	.
.	.	re-	.	.	.	.	.
.	.	_	.	.	.	.	.
.	.	-elin'	.	.	.	.	.
.	.	and	.	.	.	.	.
.	.	a	.	.	.	.	.
=23	=23	=23	=23	=23	=23	=23	=23
1Im7	G:7	rock-	.	31.689	.	voice	1G 1b 1dd 1ff#
.	.	-in'	.	.	.	.	.
.	.	_	.	.	.	.	.
.	.	.	.	.	.	.	.
=24	=24	=24	=24	=24	=24	=24	=24
1Im7	G:7	.	.	33.091	.	voice	1G 1b 1dd 1ff#
.	.	.	.	.	.	.	.
.	.	We	.	.	.	.	.
.	.	was	.	.	.	.	.
.	.	re-	.	.	.	.	.
=25	=25	=25	=25	=25	=25	=25	=25
1V7	D:7	_	.	34.492	newline	voice	1D 1f# 1a 1cc
.	.	-elin'	.	.	.	.	.
.	.	and	.	.	.	.	.
.	.	a	.	.	.	.	.
.	.	rock-	.	.	.	.	.
.	.	-in'	.	.	.	.	.
.	.	Rol-	.	.	.	.	.
=26	=26	=26	=26	=26	=26	=26	=26
1V7	D:7	_	.	35.892	.	voice	1D 1f# 1a 1cc
.	.	-lin'	.	.	.	.	.
.	.	till	.	.	.	.	.
.	.	the	.	.	.	.	.
.	.	break	.	.	.	.	.
.	.	of	.	.	.	.	.
.	.	_	.	.	.	.	.
.	.	dawn	.	.	.	.	.
=27	=27	=27	=27	=27	=27	=27	=27
1Im7	G:7	_	.	37.293	.	voice	1G 1b 1dd 1ff#
.	.	.	.	.	.	.	.
.	.	.	.	.	.	.	.
=28	=28	=28	=28	=28	=28	=28	=28
2Im7	G:7	.	.	38.693	.	voice	2G 2b 2dd 2ff#
2V7	D:7	.	.	39.393	.	voice	2D 2f# 2a 2cc
.	.	Well	.	.	.	.	.
.	.	I	.	.	.	.	.
=29	=29	=29	=29	=29	=29	=29	=29
*>Letter>B	*>Letter>B	*>Letter>B	*>Letter>B	*>Letter>B	*>Letter>B	*>Letter>B	*>Letter>B
*>Label>Verse	*>Label>Verse	*>Label>Verse	*>Label>Verse	*>Label>Verse	*>Label>Verse	*>Label>Verse	*>Label>Verse
1Im7	G:7	looked	.	40.093	newline	voice	1G 1b 1dd 1ff#
.	.	at	.	.	.	.	.
.	.	my	.	.	.	.	.
.	.	watch,	.	.	.	.	.
.	.	it	.	.	.	.	.
.	.	was	.	.	.	.	.
.	.	nine	.	.	.	.	.
=30	=30	=30	=30	=30	=30	=30	=30
1Im7	G:7	_	.	41.509	.	voice	1G 1b 1dd 1ff#
.	.	thir-	.	.	.	.	.
.	.	-ty	.	.	.	.	.
.	.	two	C	.	.	.	.
.	.	There's	.	.	.	.	.
.	.	no-	.	.	.	.	.
.	.	-thin'	.	.	.	.	.
=31	=31	=31	=31	=31	=31	=31	=31
1Im7	G:7	I'd	.	42.925	.	voice	1G 1b 1dd 1ff#
.	.	ra-	.	.	.	.	.
.	.	-ther	.	.	.	.	.
.	.	do	.	.	.	.	.
.	.	than	.	.	.	.	.
.	.	dance	.	.	.	.	.
=32	=32	=32	=32	=32	=32	=32	=32
1Im7	G:7	_	.	44.341	.	voice	1G 1b 1dd 1ff#
.	.	with	.	.	.	.	.
.	.	you	C	.	.	.	.
.	.	_	.	.	.	.	.
.	.	And	.	.	.	.	.
.	.	we	.	.	.	.	.
.	.	rolled,	.	.	.	.	.
=33	=33	=33	=33	=33	=33	=33	=33
1IVm7	C:7	_	.	45.757	newline	voice	1C 1e 1g 1b
.	.	.	.	.	.	.	.
.	.	.	.	.	.	.	.
=34	=34	=34	=34	=34	=34	=34	=34
1IVm7	C:7	.	.	47.162	.	voice	1C 1e 1g 1b
.	.	.	.	.	.	.	.
.	.	re-	.	.	.	.	.
.	.	_	.	.	.	.	.
.	.	-elin'	.	.	.	.	.
.	.	and	.	.	.	.	.
.	.	a	.	.	.	.	.
=35	=35	=35	=35	=35	=35	=35	=35
1Im7	G:7	rock-	.	48.568	.	voice	1G 1b 1dd 1ff#
.	.	-in'	.	.	.	.	.
.	.	_	.	.	.	.	.
.	.	.	.	.	.	.	.
=36	=36	=36	=36	=36	=36	=36	=36
1Im7	G:7	.	.	49.973	.	voice	1G 1b 1dd 1ff#
.	.	.	.	.	.	.	.
.	.	We	.	.	.	.	.
.	.	was	.	.	.	.	.
.	.	re-	.	.	.	.	.
=37	=37	=37	=37	=37	=37	=37	=37
1V7	D:7	_	.	51.378	newline	voice	1D 1f# 1a 1cc
.	.	-elin'	.	.	.	.	.
.	.	and	.	.	.	.	.
.	.	a	.	.	.	.	.
.	.	rock-	.	.	.	.	.
.	.	-in'	.	.	.	.	.
.	.	well	.	.	.	.	.
=38	=38	=38	=38	=38	=38	=38	=38
1V7	D:7	_	.	52.782	.	voice	1D 1f# 1a 1cc
.	.	till	.	.	.	.	.
.	.	the	.	.	.	.	.
.	.	break	.	.	.	.	.
.	.	of	.	.	.	.	.
.	.	_	.	.	.	.	.
.	.	dawn	.	.	.	.	.
=39	=39	=39	=39	=39	=39	=39	=39
1Im7	G:7	_	.	54.187	.	voice	1G 1b 1dd 1ff#
.	.	.	.	.	.	.	.
.	.	.	.	.	.	.	.
=40	=40	=40	=40	=40	=40	=40	=40
2Im7	G:7	.	.	55.591	.	voice	2G 2b 2dd 2ff#
2V7	D:7	.	.	56.293	.	voice	2D 2f# 2a 2cc
.	.	Well	.	.	.	.	.
.	.	I	.	.	.	.	.
=41	=41	=41	=41	=41	=41	=41	=41
*>Letter>B	*>Letter>B	*>Letter>B	*>Letter>B	*>Letter>B	*>Letter>B	*>Letter>B	*>Letter>B
*>Label>Verse	*>Label>Verse	*>Label>Verse	*>Label>Verse	*>Label>Verse	*>Label>Verse	*>Label>Verse	*>Label>Verse
1Im7	G:7	looked	.	56.995	newline	voice	1G 1b 1dd 1ff#
.	.	at	.	.	.	.	.
.	.	my	.	.	.	.	.
.	.	watch,	.	.	.	.	.
.	.	it	.	.	.	.	.
.	.	was	.	.	.	.	.
.	.	nine	.	.	.	.	.
=42	=42	=42	=42	=42	=42	=42	=42
1Im7	G:7	_	.	58.425	.	voice	1G 1b 1dd 1ff#
.	.	for-	.	.	.	.	.
.	.	-ty	.	.	.	.	.
.	.	three	D	.	.	.	.
.	.	and	.	.	.	.	.
.	.	ev-	.	.	.	.	.
.	.	-ery	.	.	.	.	.
=43	=43	=43	=43	=43	=43	=43	=43
1Im7	G:7	time	.	59.855	.	voice	1G 1b 1dd 1ff#
.	.	I	.	.	.	.	.
.	.	spinned	.	.	.	.	.
.	.	she	.	.	.	.	.
=44	=44	=44	=44	=44	=44	=44	=44
1Im7	G:7	spinned	.	61.285	.	voice	1G 1b 1dd 1ff#
.	.	with	.	.	.	.	.
.	.	me	D	.	.	.	.
.	.	And	.	.	.	.	.
.	.	we	.	.	.	.	.
.	.	reeled	.	.	.	.	.
=45	=45	=45	=45	=45	=45	=45	=45
1IVm7	C:7	_	.	62.715	newline	voice	1C 1e 1g 1b
.	.	.	.	.	.	.	.
.	.	.	.	.	.	.	.
=46	=46	=46	=46	=46	=46	=46	=46
1IVm7	C:7	.	.	64.121	.	voice	1C 1e 1g 1b
.	.	.	.	.	.	.	.
.	.	re-	.	.	.	.	.
.	.	_	.	.	.	.	.
.	.	-elin'	.	.	.	.	.
.	.	and	.	.	.	.	.
.	.	a	.	.	.	.	.
=47	=47	=47	=47	=47	=47	=47	=47
1Im7	G:7	rock-	.	65.526	.	voice	1G 1b 1dd 1ff#
.	.	-in'	.	.	.	.	.
.	.	_	.	.	.	.	.
.	.	.	.	.	.	.	.
=48	=48	=48	=48	=48	=48	=48	=48
1Im7	G:7	.	.	66.932	.	voice	1G 1b 1dd 1ff#
.	.	.	.	.	.	.	.
.	.	We	.	.	.	.	.
.	.	was	.	.	.	.	.
.	.	re-	.	.	.	.	.
=49	=49	=49	=49	=49	=49	=49	=49
1V7	D:7	_	.	68.338	newline	voice	1D 1f# 1a 1cc
.	.	-elin'	.	.	.	.	.
.	.	and	.	.	.	.	.
.	.	a	.	.	.	.	.
.	.	rock-	.	.	.	.	.
.	.	-in'	.	.	.	.	.
.	.	Rol-	.	.	.	.	.
=50	=50	=50	=50	=50	=50	=50	=50
1V7	D:7	_	.	69.735	.	voice	1D 1f# 1a 1cc
.	.	-lin'	.	.	.	.	.
.	.	till	.	.	.	.	.
.	.	the	.	.	.	.	.
.	.	break	.	.	.	.	.
.	.	of	.	.	.	.	.
.	.	_	.	.	.	.	.
.	.	dawn	.	.	.	.	.
=51	=51	=51	=51	=51	=51	=51	=51
1Im7	G:7	_	.	71.133	.	voice	1G 1b 1dd 1ff#
.	.	.	.	.	.	.	.
.	.	.	.	.	.	.	.
=52	=52	=52	=52	=52	=52	=52	=52
2Im7	G:7	.	.	72.53	.	voice	2G 2b 2dd 2ff#
2V7	D:7	.	.	73.229	.	voice	2D 2f# 2a 2cc
.	.	Well	.	.	.	.	.
.	.	I	.	.	.	.	.
=53	=53	=53	=53	=53	=53	=53	=53
*>Letter>B	*>Letter>B	*>Letter>B	*>Letter>B	*>Letter>B	*>Letter>B	*>Letter>B	*>Letter>B
*>Label>Verse	*>Label>Verse	*>Label>Verse	*>Label>Verse	*>Label>Verse	*>Label>Verse	*>Label>Verse	*>Label>Verse
1Im7	G:7	looked	.	73.928	newline	voice	1G 1b 1dd 1ff#
.	.	at	.	.	.	.	.
.	.	my	.	.	.	.	.
.	.	watch,	.	.	.	.	.
.	.	it	.	.	.	.	.
.	.	was	.	.	.	.	.
.	.	nine	.	.	.	.	.
=54	=54	=54	=54	=54	=54	=54	=54
1Im7	G:7	_	.	75.355	.	voice	1G 1b 1dd 1ff#
.	.	fif-	.	.	.	.	.
.	.	-ty	.	.	.	.	.
.	.	four	E	.	.	.	.
.	.	.	.	.	.	.	.
.	.	I	.	.	.	.	.
.	.	said	.	.	.	.	.
=55	=55	=55	=55	=55	=55	=55	=55
1Im7	G:7	Dance	.	76.782	.	voice	1G 1b 1dd 1ff#
.	.	ba-	.	.	.	.	.
.	.	-lle-	.	.	.	.	.
.	.	-ri-	.	.	.	.	.
.	.	-na	.	.	.	.	.
.	.	girl,	.	.	.	.	.
=56	=56	=56	=56	=56	=56	=56	=56
1Im7	G:7	go	E	78.21	.	voice	1G 1b 1dd 1ff#
.	.	go	E	.	.	.	.
.	.	go!	E	.	.	.	.
.	.	_	.	.	.	.	.
.	.	And	.	.	.	.	.
.	.	we	.	.	.	.	.
.	.	rolled,	.	.	.	.	.
=57	=57	=57	=57	=57	=57	=57	=57
1IVm7	C:7	_	.	79.637	newline	voice	1C 1e 1g 1b
.	.	.	.	.	.	.	.
.	.	.	.	.	.	.	.
=58	=58	=58	=58	=58	=58	=58	=58
1IVm7	C:7	.	.	81.062	.	voice	1C 1e 1g 1b
.	.	.	.	.	.	.	.
.	.	re-	.	.	.	.	.
.	.	_	.	.	.	.	.
.	.	-elin'	.	.	.	.	.
.	.	and	.	.	.	.	.
.	.	a	.	.	.	.	.
=59	=59	=59	=59	=59	=59	=59	=59
1Im7	G:7	rock-	.	82.486	.	voice	1G 1b 1dd 1ff#
.	.	-in'	.	.	.	.	.
.	.	_	.	.	.	.	.
.	.	.	.	.	.	.	.
=60	=60	=60	=60	=60	=60	=60	=60
1Im7	G:7	.	.	83.911	.	voice	1G 1b 1dd 1ff#
.	.	.	.	.	.	.	.
.	.	We	.	.	.	.	.
.	.	was	.	.	.	.	.
.	.	re-	.	.	.	.	.
=61	=61	=61	=61	=61	=61	=61	=61
1V7	D:7	_	.	85.336	newline	voice	1D 1f# 1a 1cc
.	.	-elin'	.	.	.	.	.
.	.	and	.	.	.	.	.
.	.	a	.	.	.	.	.
.	.	rock-	.	.	.	.	.
.	.	-in'	.	.	.	.	.
.	.	Rol-	.	.	.	.	.
=62	=62	=62	=62	=62	=62	=62	=62
1V7	D:7	_	.	86.739	.	voice	1D 1f# 1a 1cc
.	.	-lin'	.	.	.	.	.
.	.	till	.	.	.	.	.
.	.	the	.	.	.	.	.
.	.	break	.	.	.	.	.
.	.	of	.	.	.	.	.
.	.	_	.	.	.	.	.
.	.	dawn	.	.	.	.	.
=63	=63	=63	=63	=63	=63	=63	=63
1Im7	G:7	_	.	88.143	.	voice	1G 1b 1dd 1ff#
.	.	.	.	.	.	.	.
.	.	.	.	.	.	.	.
=64	=64	=64	=64	=64	=64	=64	=64
2Im7	G:7	.	.	89.546	.	voice	2G 2b 2dd 2ff#
2V7	D:7	.	.	90.247	.	voice	2D 2f# 2a 2cc
.	.	Well	.	.	.	.	.
.	.	I	.	.	.	.	.
=65	=65	=65	=65	=65	=65	=65	=65
*>Letter>B	*>Letter>B	*>Letter>B	*>Letter>B	*>Letter>B	*>Letter>B	*>Letter>B	*>Letter>B
*>Label>Verse	*>Label>Verse	*>Label>Verse	*>Label>Verse	*>Label>Verse	*>Label>Verse	*>Label>Verse	*>Label>Verse
1Im7	G:7	looked	.	90.949	newline	voice	1G 1b 1dd 1ff#
.	.	at	.	.	.	.	.
.	.	my	.	.	.	.	.
.	.	watch,	.	.	.	.	.
.	.	it	.	.	.	.	.
.	.	was	.	.	.	.	.
=66	=66	=66	=66	=66	=66	=66	=66
1Im7	G:7	ten	.	92.376	.	voice	1G 1b 1dd 1ff#
.	.	o'	.	.	.	.	.
.	.	five	F	.	.	.	.
.	.	.	.	.	.	.	.
=67	=67	=67	=67	=67	=67	=67	=67
1Im7	G:7	Man,	.	93.803	.	voice	1G 1b 1dd 1ff#
.	.	I	.	.	.	.	.
.	.	did-	.	.	.	.	.
.	.	-n't	.	.	.	.	.
.	.	know	.	.	.	.	.
.	.	if	.	.	.	.	.
.	.	I	.	.	.	.	.
.	.	was	.	.	.	.	.
=68	=68	=68	=68	=68	=68	=68	=68
1Im7	G:7	dead	.	95.231	.	voice	1G 1b 1dd 1ff#
.	.	or	.	.	.	.	.
.	.	a-	.	.	.	.	.
.	.	-live	F	.	.	.	.
.	.	_	.	.	.	.	.
.	.	And	.	.	.	.	.
.	.	I	.	.	.	.	.
.	.	was	.	.	.	.	.
=69	=69	=69	=69	=69	=69	=69	=69
1IVm7	C:7	rol-	.	96.658	newline	voice	1C 1e 1g 1b
.	.	-lin'	.	.	.	.	.
.	.	.	.	.	.	.	.
.	.	.	.	.	.	.	.
=70	=70	=70	=70	=70	=70	=70	=70
1IVm7	C:7	.	.	98.064	.	voice	1C 1e 1g 1b
.	.	.	.	.	.	.	.
.	.	re-	.	.	.	.	.
.	.	_	.	.	.	.	.
.	.	-elin'	.	.	.	.	.
.	.	and	.	.	.	.	.
.	.	a	.	.	.	.	.
=71	=71	=71	=71	=71	=71	=71	=71
1Im7	G:7	rock-	.	99.471	.	voice	1G 1b 1dd 1ff#
.	.	-in'	.	.	.	.	.
.	.	_	.	.	.	.	.
.	.	.	.	.	.	.	.
=72	=72	=72	=72	=72	=72	=72	=72
1Im7	G:7	.	.	100.878	.	voice	1G 1b 1dd 1ff#
.	.	.	.	.	.	.	.
.	.	We	.	.	.	.	.
.	.	was	.	.	.	.	.
.	.	re-	.	.	.	.	.
=73	=73	=73	=73	=73	=73	=73	=73
1V7	D:7	_	.	102.284	newline	voice	1D 1f# 1a 1cc
.	.	-elin'	.	.	.	.	.
.	.	and	.	.	.	.	.
.	.	a	.	.	.	.	.
.	.	rock-	.	.	.	.	.
.	.	-in'	.	.	.	.	.
.	.	Rol-	.	.	.	.	.
=74	=74	=74	=74	=74	=74	=74	=74
1V7	D:7	_	.	103.694	.	voice	1D 1f# 1a 1cc
.	.	-lin'	.	.	.	.	.
.	.	till	.	.	.	.	.
.	.	the	.	.	.	.	.
.	.	break	.	.	.	.	.
.	.	of	.	.	.	.	.
.	.	_	.	.	.	.	.
.	.	dawn	.	.	.	.	.
=75	=75	=75	=75	=75	=75	=75	=75
1Im7	G:7	_	.	105.103	.	voice	1G 1b 1dd 1ff#
.	.	.	.	.	.	.	.
.	.	.	.	.	.	.	.
=76	=76	=76	=76	=76	=76	=76	=76
2Im7	G:7	.	.	106.512	.	voice	2G 2b 2dd 2ff#
2V7	D:7	.	.	107.217	.	voice	2D 2f# 2a 2cc
.	.	Well	.	.	.	.	.
.	.	I	.	.	.	.	.
=77	=77	=77	=77	=77	=77	=77	=77
*>Letter>B	*>Letter>B	*>Letter>B	*>Letter>B	*>Letter>B	*>Letter>B	*>Letter>B	*>Letter>B
*>Label>Verse	*>Label>Verse	*>Label>Verse	*>Label>Verse	*>Label>Verse	*>Label>Verse	*>Label>Verse	*>Label>Verse
1Im7	G:7	looked	.	107.921	newline	voice	1G 1b 1dd 1ff#
.	.	at	.	.	.	.	.
.	.	my	.	.	.	.	.
.	.	watch,	.	.	.	.	.
.	.	it	.	.	.	.	.
.	.	was	.	.	.	.	.
.	.	ten	.	.	.	.	.
=78	=78	=78	=78	=78	=78	=78	=78
1Im7	G:7	_	.	109.314	.	voice	1G 1b 1dd 1ff#
.	.	twen-	.	.	.	.	.
.	.	-ty	.	.	.	.	.
.	.	six	G	.	.	.	.
.	.	.	.	.	.	.	.
.	.	But	.	.	.	.	.
.	.	I'm	.	.	.	.	.
.	.	'a	.	.	.	.	.
=79	=79	=79	=79	=79	=79	=79	=79
1Im7	G:7	keep	.	110.706	.	voice	1G 1b 1dd 1ff#
.	.	on	.	.	.	.	.
.	.	dan-	.	.	.	.	.
.	.	-cing	.	.	.	.	.
.	.	till	.	.	.	.	.
.	.	I	.	.	.	.	.
=80	=80	=80	=80	=80	=80	=80	=80
1Im7	G:7	get	.	112.099	.	voice	1G 1b 1dd 1ff#
.	.	my	.	.	.	.	.
.	.	kicks	G	.	.	.	.
.	.	And	.	.	.	.	.
.	.	we	.	.	.	.	.
=81	=81	=81	=81	=81	=81	=81	=81
1IVm7	C:7	reel	.	113.491	newline	voice	1C 1e 1g 1b
.	.	.	.	.	.	.	.
.	.	.	.	.	.	.	.
=82	=82	=82	=82	=82	=82	=82	=82
1IVm7	C:7	.	.	114.92	.	voice	1C 1e 1g 1b
.	.	.	.	.	.	.	.
.	.	re-	.	.	.	.	.
.	.	_	.	.	.	.	.
.	.	-elin'	.	.	.	.	.
.	.	and	.	.	.	.	.
.	.	a	.	.	.	.	.
=83	=83	=83	=83	=83	=83	=83	=83
1Im7	G:7	rock-	.	116.349	.	voice	1G 1b 1dd 1ff#
.	.	-in'	.	.	.	.	.
.	.	_	.	.	.	.	.
.	.	.	.	.	.	.	.
=84	=84	=84	=84	=84	=84	=84	=84
1Im7	G:7	.	.	117.777	.	voice	1G 1b 1dd 1ff#
.	.	.	.	.	.	.	.
.	.	We	.	.	.	.	.
.	.	was	.	.	.	.	.
.	.	re-	.	.	.	.	.
=85	=85	=85	=85	=85	=85	=85	=85
1V7	D:7	_	.	119.206	newline	voice	1D 1f# 1a 1cc
.	.	-elin'	.	.	.	.	.
.	.	and	.	.	.	.	.
.	.	a	.	.	.	.	.
.	.	rock-	.	.	.	.	.
.	.	-in'	.	.	.	.	.
.	.	Rol-	.	.	.	.	.
=86	=86	=86	=86	=86	=86	=86	=86
1V7	D:7	_	.	120.625	.	voice	1D 1f# 1a 1cc
.	.	-lin'	.	.	.	.	.
.	.	till	.	.	.	.	.
.	.	the	.	.	.	.	.
.	.	break	.	.	.	.	.
.	.	of	.	.	.	.	.
.	.	_	.	.	.	.	.
.	.	dawn	.	.	.	.	.
=87	=87	=87	=87	=87	=87	=87	=87
1Im7	G:7	_	.	122.044	.	voice	1G 1b 1dd 1ff#
.	.	.	.	.	.	.	.
.	.	.	.	.	.	.	.
=88	=88	=88	=88	=88	=88	=88	=88
2Im7	G:7	.	.	123.463	.	voice	2G 2b 2dd 2ff#
2V7	D:7	.	.	124.173	.	voice	2D 2f# 2a 2cc
.	.	Well	.	.	.	.	.
.	.	I	.	.	.	.	.
=89	=89	=89	=89	=89	=89	=89	=89
*>Letter>B	*>Letter>B	*>Letter>B	*>Letter>B	*>Letter>B	*>Letter>B	*>Letter>B	*>Letter>B
*>Label>Verse	*>Label>Verse	*>Label>Verse	*>Label>Verse	*>Label>Verse	*>Label>Verse	*>Label>Verse	*>Label>Verse
1Im7	G:7	looked	.	124.882	newline	voice	1G 1b 1dd 1ff#
.	.	at	.	.	.	.	.
.	.	my	.	.	.	.	.
.	.	watch,	.	.	.	.	.
.	.	it	.	.	.	.	.
.	.	was	.	.	.	.	.
.	.	ten	.	.	.	.	.
=90	=90	=90	=90	=90	=90	=90	=90
1Im7	G:7	_	.	126.308	.	voice	1G 1b 1dd 1ff#
.	.	twen-	.	.	.	.	.
.	.	-ty	.	.	.	.	.
.	.	eight	H	.	.	.	.
.	.	.	.	.	.	.	.
.	.	.	.	.	.	.	.
.	.	I	.	.	.	.	.
=91	=91	=91	=91	=91	=91	=91	=91
1Im7	G:7	got-	.	127.734	.	voice	1G 1b 1dd 1ff#
.	.	-ta	.	.	.	.	.
.	.	get	.	.	.	.	.
.	.	my	.	.	.	.	.
.	.	kicks	.	.	.	.	.
.	.	'fore	.	.	.	.	.
.	.	it	.	.	.	.	.
=92	=92	=92	=92	=92	=92	=92	=92
1Im7	G:7	get	.	129.159	.	voice	1G 1b 1dd 1ff#
.	.	too	.	.	.	.	.
.	.	late	H	.	.	.	.
.	.	we	.	.	.	.	.
.	.	ree-	.	.	.	.	.
=93	=93	=93	=93	=93	=93	=93	=93
1IVm7	C:7	_	.	130.585	newline	voice	1C 1e 1g 1b
.	.	-lin'	.	.	.	.	.
.	.	.	.	.	.	.	.
.	.	.	.	.	.	.	.
=94	=94	=94	=94	=94	=94	=94	=94
1IVm7	C:7	.	.	132.001	.	voice	1C 1e 1g 1b
.	.	.	.	.	.	.	.
.	.	re-	.	.	.	.	.
.	.	_	.	.	.	.	.
.	.	-elin'	.	.	.	.	.
.	.	and	.	.	.	.	.
.	.	a	.	.	.	.	.
=95	=95	=95	=95	=95	=95	=95	=95
1Im7	G:7	rock-	.	133.417	.	voice	1G 1b 1dd 1ff#
.	.	-in'	.	.	.	.	.
.	.	_	.	.	.	.	.
.	.	.	.	.	.	.	.
=96	=96	=96	=96	=96	=96	=96	=96
1Im7	G:7	.	.	134.832	.	voice	1G 1b 1dd 1ff#
.	.	.	.	.	.	.	.
.	.	We	.	.	.	.	.
.	.	was	.	.	.	.	.
.	.	re-	.	.	.	.	.
=97	=97	=97	=97	=97	=97	=97	=97
1V7	D:7	_	.	136.248	newline	voice	1D 1f# 1a 1cc
.	.	-elin'	.	.	.	.	.
.	.	and	.	.	.	.	.
.	.	a	.	.	.	.	.
.	.	rock-	.	.	.	.	.
.	.	-in'	.	.	.	.	.
.	.	Rol-	.	.	.	.	.
=98	=98	=98	=98	=98	=98	=98	=98
1V7	D:7	_	.	137.659	.	voice	1D 1f# 1a 1cc
.	.	-lin'	.	.	.	.	.
.	.	till	.	.	.	.	.
.	.	the	.	.	.	.	.
.	.	break	.	.	.	.	.
.	.	of	.	.	.	.	.
.	.	_	.	.	.	.	.
.	.	dawn	.	.	.	.	.
=99	=99	=99	=99	=99	=99	=99	=99
1Im7	G:7	_	.	139.07	.	voice	1G 1b 1dd 1ff#
.	.	.	.	.	.	.	.
.	.	.	.	.	.	.	.
=100	=100	=100	=100	=100	=100	=100	=100
2Im7	G:7	.	.	140.48	.	voice	2G 2b 2dd 2ff#
2V7	D:7	.	.	141.186	.	voice	2D 2f# 2a 2cc
.	.	Well	.	.	.	.	.
.	.	I	.	.	.	.	.
=101	=101	=101	=101	=101	=101	=101	=101
*>Letter>B	*>Letter>B	*>Letter>B	*>Letter>B	*>Letter>B	*>Letter>B	*>Letter>B	*>Letter>B
*>Label>Verse	*>Label>Verse	*>Label>Verse	*>Label>Verse	*>Label>Verse	*>Label>Verse	*>Label>Verse	*>Label>Verse
1Im7	G:7	looked	.	141.891	newline	voice	1G 1b 1dd 1ff#
.	.	at	.	.	.	.	.
.	.	my	.	.	.	.	.
.	.	watch,	.	.	.	.	.
.	.	it	.	.	.	.	.
.	.	was	.	.	.	.	.
.	.	ten	.	.	.	.	.
=102	=102	=102	=102	=102	=102	=102	=102
1Im7	G:7	_	.	143.28	.	voice	1G 1b 1dd 1ff#
.	.	twen-	.	.	.	.	.
.	.	-ty	.	.	.	.	.
.	.	nine	I	.	.	.	.
.	.	_	.	.	.	.	.
.	.	I	.	.	.	.	.
.	.	had	.	.	.	.	.
.	.	to	.	.	.	.	.
=103	=103	=103	=103	=103	=103	=103	=103
1Im7	G:7	hold	.	144.668	.	voice	1G 1b 1dd 1ff#
.	.	her	.	.	.	.	.
.	.	hand,	.	.	.	.	.
.	.	_	.	.	.	.	.
.	.	she	.	.	.	.	.
.	.	is	.	.	.	.	.
.	.	still	.	.	.	.	.
=104	=104	=104	=104	=104	=104	=104	=104
1Im7	G:7	_	.	146.057	.	voice	1G 1b 1dd 1ff#
.	.	hol-	.	.	.	.	.
.	.	-din'	.	.	.	.	.
.	.	mine	I	.	.	.	.
.	.	_	.	.	.	.	.
.	.	And	.	.	.	.	.
.	.	we	.	.	.	.	.
.	.	reeled	.	.	.	.	.
=105	=105	=105	=105	=105	=105	=105	=105
1IVm7	C:7	_	.	147.445	newline	voice	1C 1e 1g 1b
.	.	.	.	.	.	.	.
.	.	.	.	.	.	.	.
=106	=106	=106	=106	=106	=106	=106	=106
1IVm7	C:7	.	.	148.845	.	voice	1C 1e 1g 1b
.	.	.	.	.	.	.	.
.	.	re-	.	.	.	.	.
.	.	_	.	.	.	.	.
.	.	-elin'	.	.	.	.	.
.	.	and	.	.	.	.	.
.	.	a	.	.	.	.	.
=107	=107	=107	=107	=107	=107	=107	=107
1Im7	G:7	rock-	.	150.245	.	voice	1G 1b 1dd 1ff#
.	.	-in'	.	.	.	.	.
.	.	_	.	.	.	.	.
.	.	.	.	.	.	.	.
=108	=108	=108	=108	=108	=108	=108	=108
1Im7	G:7	.	.	151.644	.	voice	1G 1b 1dd 1ff#
.	.	.	.	.	.	.	.
.	.	We	.	.	.	.	.
.	.	was	.	.	.	.	.
.	.	re-	.	.	.	.	.
=109	=109	=109	=109	=109	=109	=109	=109
1V7	D:7	_	.	153.044	newline	voice	1D 1f# 1a 1cc
.	.	-elin'	.	.	.	.	.
.	.	and	.	.	.	.	.
.	.	a	.	.	.	.	.
.	.	rock-	.	.	.	.	.
.	.	-in'	.	.	.	.	.
.	.	Rol-	.	.	.	.	.
=110	=110	=110	=110	=110	=110	=110	=110
1V7	D:7	_	.	154.458	.	voice	1D 1f# 1a 1cc
.	.	-lin'	.	.	.	.	.
.	.	till	.	.	.	.	.
.	.	the	.	.	.	.	.
.	.	break	.	.	.	.	.
.	.	of	.	.	.	.	.
.	.	_	.	.	.	.	.
.	.	dawn	.	.	.	.	.
=111	=111	=111	=111	=111	=111	=111	=111
1Im7	G:7	_	.	155.872	.	voice	1G 1b 1dd 1ff#
.	.	.	.	.	.	.	.
.	.	.	.	.	.	.	.
=112	=112	=112	=112	=112	=112	=112	=112
2Im7	G:7	.	.	157.286	.	voice	2G 2b 2dd 2ff#
2V7	D:7	.	.	157.994	.	voice	2D 2f# 2a 2cc
.	.	Well	.	.	.	.	.
.	.	I	.	.	.	.	.
=113	=113	=113	=113	=113	=113	=113	=113
*>Letter>B	*>Letter>B	*>Letter>B	*>Letter>B	*>Letter>B	*>Letter>B	*>Letter>B	*>Letter>B
*>Label>Verse	*>Label>Verse	*>Label>Verse	*>Label>Verse	*>Label>Verse	*>Label>Verse	*>Label>Verse	*>Label>Verse
1Im7	G:7	looked	.	158.701	newline	voice	1G 1b 1dd 1ff#
.	.	at	.	.	.	.	.
.	.	my	.	.	.	.	.
.	.	watch,	.	.	.	.	.
.	.	and	.	.	.	.	.
.	.	.	.	.	.	.	.
.	.	to	.	.	.	.	.
=114	=114	=114	=114	=114	=114	=114	=114
1Im7	G:7	my	.	160.135	.	voice	1G 1b 1dd 1ff#
.	.	sur-	.	.	.	.	.
.	.	-prise	J	.	.	.	.
.	.	_	.	.	.	.	.
.	.	I	.	.	.	.	.
.	.	was	.	.	.	.	.
=115	=115	=115	=115	=115	=115	=115	=115
1Im7	G:7	dan-	.	161.569	.	voice	1G 1b 1dd 1ff#
.	.	-cin'	.	.	.	.	.
.	.	with	.	.	.	.	.
.	.	a	.	.	.	.	.
.	.	wo-	.	.	.	.	.
.	.	-man	.	.	.	.	.
.	.	that	.	.	.	.	.
.	.	was	.	.	.	.	.
=116	=116	=116	=116	=116	=116	=116	=116
1Im7	G:7	twice	.	163.003	.	voice	1G 1b 1dd 1ff#
.	.	my	.	.	.	.	.
.	.	size	J	.	.	.	.
.	.	_	.	.	.	.	.
.	.	I	.	.	.	.	.
.	.	was	.	.	.	.	.
=117	=117	=117	=117	=117	=117	=117	=117
1IVm7	C:7	ree-	.	164.438	newline	voice	1C 1e 1g 1b
.	.	-lin'	.	.	.	.	.
.	.	.	.	.	.	.	.
.	.	.	.	.	.	.	.
=118	=118	=118	=118	=118	=118	=118	=118
1IVm7	C:7	.	.	165.855	.	voice	1C 1e 1g 1b
.	.	.	.	.	.	.	.
.	.	re-	.	.	.	.	.
.	.	_	.	.	.	.	.
.	.	-elin'	.	.	.	.	.
.	.	and	.	.	.	.	.
.	.	a	.	.	.	.	.
=119	=119	=119	=119	=119	=119	=119	=119
1Im7	G:7	rock-	.	167.272	.	voice	1G 1b 1dd 1ff#
.	.	-in'	.	.	.	.	.
.	.	_	.	.	.	.	.
.	.	.	.	.	.	.	.
=120	=120	=120	=120	=120	=120	=120	=120
1Im7	G:7	.	.	168.689	.	voice	1G 1b 1dd 1ff#
.	.	.	.	.	.	.	.
.	.	I	.	.	.	.	.
.	.	was	.	.	.	.	.
.	.	re-	.	.	.	.	.
=121	=121	=121	=121	=121	=121	=121	=121
1V7	D:7	_	.	170.106	newline	voice	1D 1f# 1a 1cc
.	.	-elin'	.	.	.	.	.
.	.	and	.	.	.	.	.
.	.	a	.	.	.	.	.
.	.	rock-	.	.	.	.	.
.	.	-in'	.	.	.	.	.
.	.	Rol-	.	.	.	.	.
=122	=122	=122	=122	=122	=122	=122	=122
1V7	D:7	_	.	171.512	.	voice	1D 1f# 1a 1cc
.	.	-lin'	.	.	.	.	.
.	.	till	.	.	.	.	.
.	.	the	.	.	.	.	.
.	.	break	.	.	.	.	.
.	.	of	.	.	.	.	.
.	.	_	.	.	.	.	.
.	.	dawn	.	.	.	.	.
=123	=123	=123	=123	=123	=123	=123	=123
1Im7	G:7	_	.	172.917	.	voice	1G 1b 1dd 1ff#
.	.	.	.	.	.	.	.
.	.	.	.	.	.	.	.
=124	=124	=124	=124	=124	=124	=124	=124
2Im7	G:7	.	.	174.323	.	voice	2G 2b 2dd 2ff#
2V7	D:7	.	.	175.025	.	voice	2D 2f# 2a 2cc
.	.	Well	.	.	.	.	.
.	.	I	.	.	.	.	.
=125	=125	=125	=125	=125	=125	=125	=125
*>Letter>B	*>Letter>B	*>Letter>B	*>Letter>B	*>Letter>B	*>Letter>B	*>Letter>B	*>Letter>B
*>Label>Verse	*>Label>Verse	*>Label>Verse	*>Label>Verse	*>Label>Verse	*>Label>Verse	*>Label>Verse	*>Label>Verse
1Im7	G:7	looked	.	175.728	newline	voice	1G 1b 1dd 1ff#
.	.	at	.	.	.	.	.
.	.	my	.	.	.	.	.
.	.	watch,	.	.	.	.	.
.	.	and	.	.	.	.	.
.	.	it	.	.	.	.	.
.	.	was	.	.	.	.	.
=126	=126	=126	=126	=126	=126	=126	=126
1Im7	G:7	.	.	177.174	.	voice	1G 1b 1dd 1ff#
.	.	time	.	.	.	.	.
.	.	_	.	.	.	.	.
.	.	to	.	.	.	.	.
.	.	go	E	.	.	.	.
.	.	.	.	.	.	.	.
.	.	The	.	.	.	.	.
=127	=127	=127	=127	=127	=127	=127	=127
1Im7	G:7	band	.	178.619	.	voice	1G 1b 1dd 1ff#
.	.	lea-	.	.	.	.	.
.	.	-der	.	.	.	.	.
.	.	said	.	.	.	.	.
.	.	"We	.	.	.	.	.
.	.	4e	ain't	.	.	.	.	.
=128	=128	=128	=128	=128	=128	=128	=128	=128
1Im7	G:7	8f	pla-	.	180.065	.	voice	1G 1b 1dd 1ff#
.	.	8e	-ying	.	.	.	.	.
.	.	4d	no	.	.	.	.	.
.	.	8B-	more"	E	.	.	.	.
.	.	and	.	.	.	.	.
.	.	we	.	.	.	.	.
.	.	was	.	.	.	.	.
=129	=129	=129	=129	=129	=129	=129	=129
1IVm7	C:7	ree-	.	181.51	newline	voice	1C 1e 1g 1b
.	.	-lin'	.	.	.	.	.
.	.	.	.	.	.	.	.
.	.	.	.	.	.	.	.
=130	=130	=130	=130	=130	=130	=130	=130
1IVm7	C:7	.	.	182.944	.	voice	1C 1e 1g 1b
.	.	.	.	.	.	.	.
.	.	re-	.	.	.	.	.
.	.	_	.	.	.	.	.
.	.	-elin'	.	.	.	.	.
.	.	and	.	.	.	.	.
.	.	a	.	.	.	.	.
=131	=131	=131	=131	=131	=131	=131	=131
1Im7	G:7	rock-	.	184.378	.	voice	1G 1b 1dd 1ff#
.	.	-in'	.	.	.	.	.
.	.	_	.	.	.	.	.
.	.	.	.	.	.	.	.
=132	=132	=132	=132	=132	=132	=132	=132
1Im7	G:7	.	.	185.812	.	voice	1G 1b 1dd 1ff#
.	.	.	.	.	.	.	.
.	.	I	.	.	.	.	.
.	.	was	.	.	.	.	.
.	.	re-	.	.	.	.	.
=133	=133	=133	=133	=133	=133	=133	=133
1V7	D:7	_	.	187.246	newline	voice	1D 1f# 1a 1cc
.	.	-elin'	.	.	.	.	.
.	.	and	.	.	.	.	.
.	.	a	.	.	.	.	.
.	.	rock-	.	.	.	.	.
.	.	-in'	.	.	.	.	.
.	.	well	.	.	.	.	.
=134	=134	=134	=134	=134	=134	=134	=134
1V7	D:7	_	.	188.693	.	voice	1D 1f# 1a 1cc
.	.	till	.	.	.	.	.
.	.	the	.	.	.	.	.
.	.	break	.	.	.	.	.
.	.	of	.	.	.	.	.
.	.	dawn	.	.	.	.	.
.	.	_	.	.	.	.	.
=135	=135	=135	=135	=135	=135	=135	=135
4Im7	G:7	_	.	190.141	.	voice	4G 4b 4dd 4ff#
4-IIIm7	B-:7	.	.	190.502	.	voice	2B- 2dd 2ff 2aa
2II7	A:7	.	.	190.864	.	voice	4A 4cc# 4ee 4gg
.	.	.	.	.	.	.	.
=136	=136	=136	=136	=136	=136	=136	=136
2-IIm7	A-:7	.	.	191.588	.	voice	1A- 1cc 1ee- 1gg
2Im7	G:7	.	.	192.311	.	voice	2G 2b 2dd 2ff#
1r;	N	.	.	195.024	.	r	1r;
1r;	N	.	.	197.251	.	r	1r;
*-	*-	*-	*-	*-	*-	*-	*-
!!!BillboardChartDate: 1972/12/09
!!!BillboardPeak: 27
!!!BillboardWeeksOnChart: 13
!!!COC: Chuck Berry
!!!ENC: Nathaniel Condit-Schultz
!!!EST: Awating manual error checking and editing.
!!!OTL: Reelin' & Rockin'
!!!RDF**harte: Chris Harte's syntax, used by MIREX
!!!RDF**harmony: **recip + pitch class of root + harmonic quality
!!!RDF**leadinstrument: original McGill primary instrumentation annotation
!!!RDF**phrase: newline = linebreak in original McGill transcription
!!!RDF**timestamp: McGill audio timestamp in seconds
!!!RDT: 2017/01/12/
!!!SampleActualRank: 77
!!!SampleID#: 1110
!!!SampleTargetRank: 79
!!!MBID: 7135367f-a9c8-4bf4-8c32-8c749a318924
